assets/flags-color/Lr.svg

<svg xmlns="http://www.w3.org/2000/svg" viewBox="0 0 512 512"><path fill="#ff4b55" d="M0 .004h512v46.545H0z"/><path fill="#f5f5f5" d="M0 46.549h512v46.545H0z"/><path fill="#ff4b55" d="M0 93.091h512v46.545H0z"/><path fill="#f5f5f5" d="M0 139.641h512v46.545H0z"/><path fill="#ff4b55" d="M512 232.731H8a8 8 0 01-8-8v-38.545h512v46.545z"/><path fill="#f5f5f5" d="M512 279.277H0v-63.695h13.471l.003 17.149H512z"/><path fill="#ff4b55" d="M0 279.271h512v46.545H0z"/><path fill="#f5f5f5" d="M0 325.821h512v46.545H0z"/><path fill="#ff4b55" d="M0 372.361h512v46.545H0z"/><path fill="#f5f5f5" d="M0 418.911h512v46.545H0z"/><path fill="#ff4b55" d="M0 465.451h512v46.545H0z"/><path fill="#41479b" d="M0 .004h229.05v232.73H0z"/><path fill="#f5f5f5" d="M110.677 60.234L97.813 98.805l-40.658.315c-3.899.03-5.516 5.006-2.379 7.322l32.708 24.153L75.22 169.36c-1.176 3.717 3.056 6.793 6.229 4.525l33.078-23.643 33.078 23.643c3.172 2.267 7.405-.808 6.229-4.525l-12.264-38.765 32.708-24.153c3.137-2.316 1.52-7.292-2.379-7.322l-40.658-.315-12.865-38.571c-1.234-3.699-6.466-3.699-7.699 0z"/></svg>

<svg xmlns="http://www.w3.org/2000/svg" x="0" y="0" enable-background="new 0 0 512 512" version="1.1" viewBox="0 0 512 512" xml:space="preserve"><path fill="#FF4B55" d="M0 .004H512V46.549H0z"/><path fill="#F5F5F5" d="M0 46.549H512V93.094H0z"/><path fill="#FF4B55" d="M0 93.091H512V139.636H0z"/><path fill="#F5F5F5" d="M0 139.641H512V186.18599999999998H0z"/><path fill="#FF4B55" d="M512 232.731H8a8 8 0 0 1-8-8v-38.545h512v46.545z"/><path fill="#F5F5F5" d="M512 279.277 0 279.277 0 215.582 13.471 215.582 13.474 232.731 512 232.731z"/><path fill="#FF4B55" d="M0 279.271H512V325.81600000000003H0z"/><path fill="#F5F5F5" d="M0 325.821H512V372.36600000000004H0z"/><path fill="#FF4B55" d="M0 372.361H512V418.906H0z"/><path fill="#F5F5F5" d="M0 418.911H512V465.456H0z"/><path fill="#FF4B55" d="M0 465.451H512V511.99600000000004H0z"/><path fill="#41479B" d="M0 .004H229.05V232.73399999999998H0z"/><path fill="#F5F5F5" d="M110.677 60.234 97.813 98.805l-40.658.315c-3.899.03-5.516 5.006-2.379 7.322l32.708 24.153L75.22 169.36c-1.176 3.717 3.056 6.793 6.229 4.525l33.078-23.643 33.078 23.643c3.172 2.267 7.405-.808 6.229-4.525l-12.264-38.765 32.708-24.153c3.137-2.316 1.52-7.292-2.379-7.322l-40.658-.315-12.865-38.571c-1.234-3.699-6.466-3.699-7.699 0z"/></svg>
